src/icons/5x1.svg

<svg xmlns="http://www.w3.org/2000/svg" width="512" height="512" viewBox="0 0 512 512">
    <path d="M96 367.2h320v42.3H96v-42.3zm0-69.4h320v42.3H96v-42.3zm0-69.5h320v42.3H96v-42.3zm0-69.4h320v42.3H96v-42.3zm0-69.4h320v42.3H96V89.5z"/>
</svg>

<?xml version="1.0" encoding="UTF-8"?>
<svg width="512px" height="512px" viewBox="0 0 512 512" version="1.1" xmlns="http://www.w3.org/2000/svg" xmlns:xlink="http://www.w3.org/1999/xlink">
    <!-- Generator: Sketch 62 (91390) - https://sketch.com -->
    <title>5x1</title>
    <desc>Created with Sketch.</desc>
    <g id="5x1" stroke="none" stroke-width="1" fill="none" fill-rule="evenodd">
        <path d="M96,367.2 L416,367.2 L416,409.5 L96,409.5 L96,367.2 Z M96,297.8 L416,297.8 L416,340.1 L96,340.1 L96,297.8 L96,297.8 Z M96,228.3 L416,228.3 L416,270.6 L96,270.6 L96,228.3 L96,228.3 Z M96,158.9 L416,158.9 L416,201.2 L96,201.2 L96,158.9 L96,158.9 Z M96,89.5 L416,89.5 L416,131.8 L96,131.8 L96,89.5 Z" id="Shape" fill="#000000" fill-rule="nonzero"></path>
    </g>
</svg>
